svgs/light/square-ellipsis.svg

<svg xmlns="http://www.w3.org/2000/svg" viewBox="0 0 448 512"><!--! Font Awesome Pro 6.4.0 by @fontawesome - https://fontawesome.com License - https://fontawesome.com/license (Commercial License) Copyright 2023 Fonticons, Inc. --><path d="M32 416c0 17.7 14.3 32 32 32l320 0c17.7 0 32-14.3 32-32l0-320c0-17.7-14.3-32-32-32L64 64C46.3 64 32 78.3 32 96l0 320zm32 64c-35.3 0-64-28.7-64-64L0 96C0 60.7 28.7 32 64 32l320 0c35.3 0 64 28.7 64 64l0 320c0 35.3-28.7 64-64 64L64 480zM200 256a24 24 0 1 1 48 0 24 24 0 1 1 -48 0zm-72 24a24 24 0 1 1 0-48 24 24 0 1 1 0 48zm168-24a24 24 0 1 1 48 0 24 24 0 1 1 -48 0z"/></svg>

<svg xmlns="http://www.w3.org/2000/svg" viewBox="0 0 448 512"><!--! Font Awesome Pro 6.3.0 by @fontawesome - https://fontawesome.com License - https://fontawesome.com/license (Commercial License) Copyright 2023 Fonticons, Inc. --><path d="M224 280C210.7 280 200 269.3 200 256C200 242.7 210.7 232 224 232C237.3 232 248 242.7 248 256C248 269.3 237.3 280 224 280zM128 232C141.3 232 152 242.7 152 256C152 269.3 141.3 280 128 280C114.7 280 104 269.3 104 256C104 242.7 114.7 232 128 232zM320 280C306.7 280 296 269.3 296 256C296 242.7 306.7 232 320 232C333.3 232 344 242.7 344 256C344 269.3 333.3 280 320 280zM64 480C28.65 480 0 451.3 0 416V96C0 60.65 28.65 32 64 32H384C419.3 32 448 60.65 448 96V416C448 451.3 419.3 480 384 480H64zM64 448H384C401.7 448 416 433.7 416 416V96C416 78.33 401.7 64 384 64H64C46.33 64 32 78.33 32 96V416C32 433.7 46.33 448 64 448z"/></svg>
